X: 30532
T: On One Beautiful Day
R: slip jig
M: 9/8
K: Gmajor
M:3/4
"G"g4 (3:2:2(d2 B)|"Am7"A2 (3:2:2(G2 F) (3:2:2"G/B"G2 D|(3:2:2"C"E2 (G (3cBG) (3:2:2"D"A2 A|
(3:2:5"Em"Bd g2 (ga) (3:2:2"G/B"f2 d|"C"d2 (3:2:2(g2 f) (3g(ab)|a2 (3:2:2(g2 f) (3:2:2"G/D"g2 g-|
{/a} (3"C/E"gec (3:2:2d2 ("G/D"B- (3:2:2B2 A)|1 "C"G4 "D"A2:|2 "C"G6|"D"A6|(3:2:5"Em"Bd "G/D"g2 ("/B"fd) (3"C"A(G"D"F)||
"Em"E2 (3efg (3:2:2f2 d|"G/D"B2({/Bc} (3BAG) (3B(cd)|"C"d2 (3:2:2(c2 B) (3:2:2A2 G|"D"A4{/Bc} (3BAG|
(3:2:4"Em7"G2 d2 (cB (3A)(Gd)|(3:2:5("G/D"fg) d2 ga (3f(dB)|"C"E2 (3efg (3:2:2f2 d|"G/B"B2({/Bc} (3BAG) (3B(cd)|
"Am7"d2 (3:2:2(c2 B) (3:2:2A2 G|"D/F#"A4{/Bc} (3BAG|(3:2:4"Em"G2 d2 (cB (3A)(Gd)|(3:2:5("G/D"fg) d2 ga (3f(ga)|
(3:2:2"C"b2 b (3(bag) (3(fge)|(3:2:5dB G2 (AB) (3A(GF)|"G/B"G4 "D"A2-|A6||

